X:1
T:Title
%%score { ( 1 3 ) | 2 }
L:1/8
Q:1/4=106
M:4/4
K:Bb
V:1 treble nm="Grand Piano"
V:3 treble 
V:2 bass 
V:1
 [Fd]2 [Fd]2 [DB][CA][DB][Ec] | [Fd]4 [DB]3 [FB] | c2 cc A2 FF | [FB]2 c2 d4 | %4
w: W.~T.~Giffe * * * * *||||
 G2 G[FA] [GB]2 [EG]2 | [DF]2 [FB]c d2 B2 | [Gc]2 [Gc][Gc] d2 cc | B2 AA [B,DB]4 | %8
w: ||||
 [DFB]3 [DFB] [CFA]2 [B,=EG]2 | F8 | [Ae]3 [Ae] [Bd]2 c2 | d8 | [DB]2 [DB][Ec] [Fd][DB] z2 | %13
w: |||||
 [EG]2 [EG][FA] [GB]GFd | c4 A4 | [DB]6 z2 |] %16
w: |||
V:2
 [B,,B,]2 [B,,B,]2 [B,,B,][B,,B,][B,,B,][B,,B,] | [B,,B,]4 [B,,F,]3 [D,B,] | %2
 [F,A,F]2 [F,A,F][F,A,F] [F,CF]2 [F,A,C][F,A,C] | [D,B,]2[K:treble] [F,A,F]2 [B,F]4 | %4
 [E,B,E]2 [E,B,E][E,B,] [E,B,]2 [E,B,]2 | [B,,B,]2 [D,B,][K:treble][F,A,F] [B,F]2 [B,DF]2 | %6
 [E,C]2 [E,G,][E,G,] [F,B,F]2 [F,EF][F,EF] | [F,DF]2 [F,CE][F,CE] B,,4 | B,,3 B,, C,2 C,2 | %9
 [F,A,]2 [F,A,][F,B,] [F,C]4 | [F,C]3 [F,C] [G,B,]2[K:treble] [A,CF]2 | [B,F]2 B,B, B,4 | %12
 [B,,F,]2 [B,,F,][B,,F,] [B,,B,][B,,F,] z2 | %13
 [E,B,]2 [E,B,][E,B,] [E,B,][E,B,E][K:treble][B,D][B,F] | [F,A,F]4 [F,CE]4 | [B,,B,]6 z2 |] %16
V:3
 x8 | x8 | x8 | x8 | x8 | x8 | x8 | x8 | x8 | z2 CD E4 | x8 | z2 FF F4 | x8 | x8 | x8 | x8 |] %16

